snap/Costumes/trumpet-a2.svg

<svg version="1.1" width="346" height="185" viewBox="-1 -1 346 185" xmlns="http://www.w3.org/2000/svg" xmlns:xlink="http://www.w3.org/1999/xlink">
  <!-- Exported by Scratch - http://scratch.mit.edu/ -->
  <g id="ID0.5954653825610876" transform="matrix(1, 0, 0, 1, -156, -155)">
    <g id="ID0.3249674625694752" transform="matrix(1, 0, 0, 1, 156, 155)">
      <g id="ID0.3561852681450546">
        <path id="ID0.33417380088940263" fill="#FCD53E" d="M 153.200 165.200 L 347.600 165.200 L 347.600 171.200 L 153.200 171.200 L 153.200 165.200 Z " transform="matrix(0.6983180642127991, -0.0051772380247712135, 0.0051772380247712135, 0.6983180642127991, -100.65, -100.25)"/>
        <path id="ID0.824137098621577" fill="#FCD53E" d="M 247.800 72.900 C 247.800 72.900 244.800 62.800 244.800 61.700 C 244.800 60.600 256 60.800 256 61.700 C 256 62.600 253 72.900 253 72.900 L 247.800 72.900 Z " transform="matrix(-0.0051772380247712135, -0.6983180642127991, 0.6983180642127991, -0.0051772380247712135, -41.2, 191.55)"/>
        <path id="ID0.2283015651628375" fill="#FCD53E" d="M 244.300 252.400 C 249.100 255.400 233.500 291.900 228.800 295.400 C 224.500 298.600 275.200 297.600 271.800 295.400 C 267.200 292.300 249.400 254.900 253.300 252.400 L 244.300 252.400 Z " transform="matrix(-0.0051772380247712135, -0.6983180642127991, 0.6983180642127991, -0.0051772380247712135, -41.2, 191.55)"/>
      </g>
      <path id="ID0.756980353500694" fill="#FCD53E" d="M 248.200 248.600 L 248.200 114.900 C 248.200 109.900 246.100 105.300 242.800 101.900 C 239.500 98.600 234.900 96.500 229.800 96.500 C 219.700 96.500 211.500 104.700 211.500 114.800 L 211.500 248.500 C 211.500 253.500 213.600 258.100 216.900 261.500 C 220.200 264.800 224.800 266.900 229.900 266.900 C 240 266.900 248.200 258.600 248.200 248.600 Z M 220 257.600 C 217.500 255.100 215.900 251.600 215.900 247.800 L 215.900 114.900 C 215.900 107.300 222.100 101.100 229.700 101.100 C 233.500 101.100 237 102.600 239.500 105.200 C 242 107.700 243.600 111.200 243.600 115 L 243.600 247.900 C 243.600 255.500 237.400 261.700 229.800 261.700 C 225.900 261.600 222.500 260.100 220 257.600 Z " transform="matrix(-0.0051772380247712135, -0.6983180642127991, 0.6983180642127991, -0.0051772380247712135, -41.2, 191.55)"/>
      <g id="ID0.7187623926438391">
        <path id="ID0.013163168914616108" fill="#FCD53E" d="M 261.100 165.900 L 261.100 160.500 C 261.100 159.200 262.200 158.200 263.400 158.200 L 263.400 158.200 C 264.700 158.200 265.700 159.300 265.700 160.500 L 265.700 165.900 C 265.700 167.200 264.600 168.200 263.400 168.200 L 263.400 168.200 C 262.100 168.200 261.100 167.200 261.100 165.900 Z " transform="matrix(-0.0051772380247712135, -0.6983180642127991, 0.6983180642127991, -0.0051772380247712135, -41.2, 191.55)"/>
        <path id="ID0.21311582950875163" fill="#FCD53E" d="M 232.600 134.200 L 236.300 134.200 L 236.300 192.200 L 232.600 192.200 L 232.600 134.200 Z " transform="matrix(0.6983180642127991, -0.0051772380247712135, 0.0051772380247712135, 0.6983180642127991, -92.9, -85.65)"/>
      </g>
      <g id="ID0.9478830816224217">
        <path id="ID0.9766642795875669" fill="#FCD53E" d="M 261.100 178.100 L 261.100 172.700 C 261.100 171.400 262.200 170.400 263.400 170.400 L 263.400 170.400 C 264.700 170.400 265.700 171.400 265.700 172.700 L 265.700 178.100 C 265.700 179.400 264.600 180.400 263.400 180.400 L 263.400 180.400 C 262.100 180.400 261.100 179.400 261.100 178.100 Z " transform="matrix(-0.0051772380247712135, -0.6983180642127991, 0.6983180642127991, -0.0051772380247712135, -41.2, 191.55)"/>
        <path id="ID0.7786608692258596" fill="#FCD53E" d="M 232.600 146.400 L 236.300 146.400 L 236.300 204.400 L 232.600 204.400 L 232.600 146.400 Z " transform="matrix(0.6983180642127991, -0.0051772380247712135, 0.0051772380247712135, 0.6983180642127991, -84.45, -94.25)"/>
      </g>
      <g id="ID0.1824450814165175">
        <path id="ID0.7877761125564575" fill="#FCD53E" d="M 261.100 190.200 L 261.100 184.800 C 261.100 183.500 262.200 182.500 263.400 182.500 L 263.400 182.500 C 264.700 182.500 265.700 183.600 265.700 184.800 L 265.700 190.200 C 265.700 191.500 264.600 192.500 263.400 192.500 L 263.400 192.500 C 262.100 192.600 261.100 191.500 261.100 190.200 Z " transform="matrix(-0.0051772380247712135, -0.6983180642127991, 0.6983180642127991, -0.0051772380247712135, -41.2, 191.55)"/>
        <path id="ID0.5234252838417888" fill="#FCD53E" d="M 232.600 158.600 L 236.300 158.600 L 236.300 216.600 L 232.600 216.600 L 232.600 158.600 Z " transform="matrix(0.6983180642127991, -0.0051772380247712135, 0.0051772380247712135, 0.6983180642127991, -76.05, -102.75)"/>
      </g>
      <path id="ID0.05638829246163368" fill="#FCD53E" d="M 253.400 196.800 C 251.500 196.800 249.400 198.400 248.500 200 C 249 197.400 251.400 194.400 254.100 194.400 C 257.300 194.400 259.900 197 259.900 200.200 L 257.700 200.200 C 257.200 198 255.700 196.800 253.400 196.800 Z " transform="matrix(-0.0051772380247712135, -0.6983180642127991, 0.6983180642127991, -0.0051772380247712135, -41.2, 191.55)"/>
      <path id="ID0.3507852805778384" fill="#FCD53E" d="M 231.600 209.800 L 231.600 144.600 C 231.600 141.800 230.500 139.300 228.700 137.500 C 226.900 135.700 224.400 134.600 221.600 134.600 C 216.100 134.600 211.600 139.100 211.600 144.600 L 211.600 209.800 C 211.600 212.600 212.700 215.100 214.500 216.900 C 216.300 218.700 218.800 219.800 221.600 219.800 C 227.200 219.800 231.600 215.300 231.600 209.800 Z M 217.600 213.500 C 216.600 212.500 215.900 211 215.900 209.500 L 215.900 145 C 215.900 141.900 218.400 139.300 221.600 139.300 C 223.200 139.300 224.600 139.900 225.600 141 C 226.600 142 227.300 143.400 227.300 145 L 227.300 209.500 C 227.300 212.600 224.800 215.200 221.600 215.200 C 220.100 215.200 218.700 214.500 217.600 213.500 Z " transform="matrix(-0.0051772380247712135, -0.6983180642127991, 0.6983180642127991, -0.0051772380247712135, -41.2, 191.55)"/>
    </g>
    <path id="ID0.9586134408600628" fill="none" stroke="#FBD43F" stroke-width="2" stroke-linecap="round" d="M 297.500 147.500 L 303.500 128.500 " transform="matrix(0.20878222584724426, 0.666396975517273, -0.666396975517273, 0.20878222584724426, 365.6, -58.9)"/>
    <path id="ID0.9586134408600628" fill="none" stroke="#FBD43F" stroke-width="2" stroke-linecap="round" d="M 297.500 147.500 L 303.500 128.500 " transform="matrix(-0.25107571482658386, -0.6516408920288086, -0.6516408920288086, 0.25107571482658386, 498.75, 322.7)"/>
    <path id="ID0.9586134408600628" fill="none" stroke="#FBD43F" stroke-width="2" stroke-linecap="round" d="M 297.500 147.500 L 303.500 128.500 " transform="matrix(-0.25107571482658386, 0.6516408920288086, -0.6516408920288086, -0.25107571482658386, 499.35, 16.9)"/>
  </g>
</svg>

<?xml version="1.0" encoding="UTF-8" standalone="no"?>
<svg
   xmlns:dc="http://purl.org/dc/elements/1.1/"
   xmlns:cc="http://creativecommons.org/ns#"
   xmlns:rdf="http://www.w3.org/1999/02/22-rdf-syntax-ns#"
   xmlns:svg="http://www.w3.org/2000/svg"
   xmlns="http://www.w3.org/2000/svg"
   xmlns:sodipodi="http://sodipodi.sourceforge.net/DTD/sodipodi-0.dtd"
   xmlns:inkscape="http://www.inkscape.org/namespaces/inkscape"
   version="1.1"
   width="188"
   height="47.260201"
   viewBox="-1 -1 188 47.260201"
   id="svg823"
   sodipodi:docname="trumpet-a2.svg"
   inkscape:version="0.92.2 5c3e80d, 2017-08-06">
  <metadata
     id="metadata829">
    <rdf:RDF>
      <cc:Work
         rdf:about="">
        <dc:format>image/svg+xml</dc:format>
        <dc:type
           rdf:resource="http://purl.org/dc/dcmitype/StillImage" />
        <dc:title></dc:title>
      </cc:Work>
    </rdf:RDF>
  </metadata>
  <defs
     id="defs827" />
  <sodipodi:namedview
     pagecolor="#ffffff"
     bordercolor="#666666"
     borderopacity="1"
     objecttolerance="10"
     gridtolerance="10"
     guidetolerance="10"
     inkscape:pageopacity="0"
     inkscape:pageshadow="2"
     inkscape:window-width="640"
     inkscape:window-height="480"
     id="namedview825"
     showgrid="false"
     fit-margin-top="0"
     fit-margin-left="0"
     fit-margin-right="0"
     fit-margin-bottom="0"
     inkscape:zoom="1.0404624"
     inkscape:cx="171.93393"
     inkscape:cy="-44.137494"
     inkscape:window-x="-4"
     inkscape:window-y="-4"
     inkscape:window-maximized="0"
     inkscape:current-layer="svg823" />
  <!-- Exported by Scratch - http://scratch.mit.edu/ -->
  <g
     id="ID0.5954653825610876"
     transform="translate(-157.06607,-156.10231)">
    <g
       id="ID0.3249674625694752"
       transform="translate(156,155)">
      <g
         id="ID0.3561852681450546">
        <path
           id="ID0.33417380088940263"
           d="m 153.2,165.2 h 194.4 v 6 H 153.2 Z"
           transform="matrix(0.69831806,-0.00517724,0.00517724,0.69831806,-100.65,-100.25)"
           inkscape:connector-curvature="0"
           style="fill:#fcd53e" />
        <path
           id="ID0.824137098621577"
           d="m 247.8,72.9 c 0,0 -3,-10.1 -3,-11.2 0,-1.1 11.2,-0.9 11.2,0 0,0.9 -3,11.2 -3,11.2 z"
           transform="matrix(-0.00517724,-0.69831806,0.69831806,-0.00517724,-41.2,191.55)"
           inkscape:connector-curvature="0"
           style="fill:#fcd53e" />
        <path
           id="ID0.2283015651628375"
           d="m 244.3,252.4 c 4.8,3 -10.8,39.5 -15.5,43 -4.3,3.2 46.4,2.2 43,0 -4.6,-3.1 -22.4,-40.5 -18.5,-43 z"
           transform="matrix(-0.00517724,-0.69831806,0.69831806,-0.00517724,-41.2,191.55)"
           inkscape:connector-curvature="0"
           style="fill:#fcd53e" />
      </g>
      <path
         id="ID0.756980353500694"
         d="M 248.2,248.6 V 114.9 c 0,-5 -2.1,-9.6 -5.4,-13 -3.3,-3.3 -7.9,-5.4 -13,-5.4 -10.1,0 -18.3,8.2 -18.3,18.3 v 133.7 c 0,5 2.1,9.6 5.4,13 3.3,3.3 7.9,5.4 13,5.4 10.1,0 18.3,-8.3 18.3,-18.3 z m -28.2,9 c -2.5,-2.5 -4.1,-6 -4.1,-9.8 V 114.9 c 0,-7.6 6.2,-13.8 13.8,-13.8 3.8,0 7.3,1.5 9.8,4.1 2.5,2.5 4.1,6 4.1,9.8 v 132.9 c 0,7.6 -6.2,13.8 -13.8,13.8 -3.9,-0.1 -7.3,-1.6 -9.8,-4.1 z"
         transform="matrix(-0.00517724,-0.69831806,0.69831806,-0.00517724,-41.2,191.55)"
         inkscape:connector-curvature="0"
         style="fill:#fcd53e" />
      <g
         id="ID0.7187623926438391">
        <path
           id="ID0.013163168914616108"
           d="m 261.1,165.9 v -5.4 c 0,-1.3 1.1,-2.3 2.3,-2.3 v 0 c 1.3,0 2.3,1.1 2.3,2.3 v 5.4 c 0,1.3 -1.1,2.3 -2.3,2.3 v 0 c -1.3,0 -2.3,-1 -2.3,-2.3 z"
           transform="matrix(-0.00517724,-0.69831806,0.69831806,-0.00517724,-41.2,191.55)"
           inkscape:connector-curvature="0"
           style="fill:#fcd53e" />
        <path
           id="ID0.21311582950875163"
           d="m 232.6,134.2 h 3.7 v 58 h -3.7 z"
           transform="matrix(0.69831806,-0.00517724,0.00517724,0.69831806,-92.9,-85.65)"
           inkscape:connector-curvature="0"
           style="fill:#fcd53e" />
      </g>
      <g
         id="ID0.9478830816224217">
        <path
           id="ID0.9766642795875669"
           d="m 261.1,178.1 v -5.4 c 0,-1.3 1.1,-2.3 2.3,-2.3 v 0 c 1.3,0 2.3,1 2.3,2.3 v 5.4 c 0,1.3 -1.1,2.3 -2.3,2.3 v 0 c -1.3,0 -2.3,-1 -2.3,-2.3 z"
           transform="matrix(-0.00517724,-0.69831806,0.69831806,-0.00517724,-41.2,191.55)"
           inkscape:connector-curvature="0"
           style="fill:#fcd53e" />
        <path
           id="ID0.7786608692258596"
           d="m 232.6,146.4 h 3.7 v 58 h -3.7 z"
           transform="matrix(0.69831806,-0.00517724,0.00517724,0.69831806,-84.45,-94.25)"
           inkscape:connector-curvature="0"
           style="fill:#fcd53e" />
      </g>
      <g
         id="ID0.1824450814165175">
        <path
           id="ID0.7877761125564575"
           d="m 261.1,190.2 v -5.4 c 0,-1.3 1.1,-2.3 2.3,-2.3 v 0 c 1.3,0 2.3,1.1 2.3,2.3 v 5.4 c 0,1.3 -1.1,2.3 -2.3,2.3 v 0 c -1.3,0.1 -2.3,-1 -2.3,-2.3 z"
           transform="matrix(-0.00517724,-0.69831806,0.69831806,-0.00517724,-41.2,191.55)"
           inkscape:connector-curvature="0"
           style="fill:#fcd53e" />
        <path
           id="ID0.5234252838417888"
           d="m 232.6,158.6 h 3.7 v 58 h -3.7 z"
           transform="matrix(0.69831806,-0.00517724,0.00517724,0.69831806,-76.05,-102.75)"
           inkscape:connector-curvature="0"
           style="fill:#fcd53e" />
      </g>
      <path
         id="ID0.05638829246163368"
         d="m 253.4,196.8 c -1.9,0 -4,1.6 -4.9,3.2 0.5,-2.6 2.9,-5.6 5.6,-5.6 3.2,0 5.8,2.6 5.8,5.8 h -2.2 c -0.5,-2.2 -2,-3.4 -4.3,-3.4 z"
         transform="matrix(-0.00517724,-0.69831806,0.69831806,-0.00517724,-41.2,191.55)"
         inkscape:connector-curvature="0"
         style="fill:#fcd53e" />
      <path
         id="ID0.3507852805778384"
         d="m 231.6,209.8 v -65.2 c 0,-2.8 -1.1,-5.3 -2.9,-7.1 -1.8,-1.8 -4.3,-2.9 -7.1,-2.9 -5.5,0 -10,4.5 -10,10 v 65.2 c 0,2.8 1.1,5.3 2.9,7.1 1.8,1.8 4.3,2.9 7.1,2.9 5.6,0 10,-4.5 10,-10 z m -14,3.7 c -1,-1 -1.7,-2.5 -1.7,-4 V 145 c 0,-3.1 2.5,-5.7 5.7,-5.7 1.6,0 3,0.6 4,1.7 1,1 1.7,2.4 1.7,4 v 64.5 c 0,3.1 -2.5,5.7 -5.7,5.7 -1.5,0 -2.9,-0.7 -4,-1.7 z"
         transform="matrix(-0.00517724,-0.69831806,0.69831806,-0.00517724,-41.2,191.55)"
         inkscape:connector-curvature="0"
         style="fill:#fcd53e" />
    </g>
    <path
       id="ID0.9586134408600628"
       d="m 297.5,147.5 6,-19"
       transform="matrix(0.20878223,0.66639698,-0.66639698,0.20878223,365.6,-58.9)"
       inkscape:connector-curvature="0"
       style="fill:none;stroke:#fbd43f;stroke-width:2;stroke-linecap:round" />
    <path
       id="path818"
       d="m 297.5,147.5 6,-19"
       transform="matrix(-0.25107571,-0.65164089,-0.65164089,0.25107571,498.75,322.7)"
       inkscape:connector-curvature="0"
       style="fill:none;stroke:#fbd43f;stroke-width:2;stroke-linecap:round" />
    <path
       id="path820"
       d="m 297.5,147.5 6,-19"
       transform="matrix(-0.25107571,0.65164089,-0.65164089,-0.25107571,499.35,16.9)"
       inkscape:connector-curvature="0"
       style="fill:none;stroke:#fbd43f;stroke-width:2;stroke-linecap:round" />
  </g>
</svg>
